X: 640
T: Polska # 640
M: 3/4
L: 1/16
R: Slängpolska
K: D
Q: 120
|:D4 F2DF A2FA| d2A2 G2F2 E2D2|A3d c2Ac e2ce | a2e2 d2c2 B2A2 | A2ce (3a2e2d2 (3c2B2A2 |1 E2^GB A4 A,4:|2 E2^GB A4 z4|]
|: A4 A2(B2 c2)(d2 | e2)f2 [Ag]8 | (agfg a2)g2 {ag}  f2e2 | d2f2 e2d2 (cd)cB | A2(A2 B2)(B2 c2)c2 | (dc)Bc d8 :|

